!!!CDT:
!!!PTL: Il sesto libro de madrigali a sei voci
!!!PPP: Venice
!!!PPR: Angelo Gardano
!!!PDT: 1591
!!!PUB-format:
!!!RISM: M 3384
!!!rime: 183
!!!AGN: Madrigal
!!!SCT: Trm0183d
!!!SCA: Trm0183d
!!!original-voices: 6
!!!extant-voices: 3
!!!complete: N
!!!final: (D)G
!!!COM: Monte, Filippo di
!!!OTL: Di nettare amoroso ebro la mente
**kern	**text	**kern	**text	**kern	**text
*part3	*part3	*part2	*part2	*part1	*part1
*staff3	*staff3	*staff2	*staff2	*staff1	*staff1
*I"Tenore	*	*I"Quinto	*	*I"Alto	*
*I'T	*	*I'V	*	*I'A	*
*oclefC3	*	*oclefC2	*	*oclefC2	*
*clefGv2	*	*clefG2	*	*clefG2	*
*k[b-]	*	*b[b-]	*	*k[b-]	*
*omet(C)	*	*omet(C)	*	*omet(C)	*
*M4/2	*	*M4/2	*	*M4/2	*
=1	=1	=1	=1	=1	=1
!!LO:TX:a:t=Prima parte.
2r	.	0r	.	2r	.
2d	Di	.	.	2a	Di
2.d	net-	.	.	2.b-y	net-
4d	-ta-	.	.	4a	-ta-
=2	=2	=2	=2	=2	=2
4d	-re a-	0r	.	2g	-re a-
4G	-mo-	.	.	.	.
2G	-ro-	.	.	2g	-mo-
1d	-so e-	.	.	2f#X	-ro-
.	.	.	.	[2g	-so e-
=3	=3	=3	=3	=3	=3
2B-y	-bro	0r	.	4g]	.
.	.	.	.	4g	-bro
2B-y	la	.	.	1b-y	la
1f	men-	.	.	.	.
.	.	.	.	2a	men-
=4	=4	=4	=4	=4	=4
2f	-te	0r	.	2b-y	-te
4r	.	.	.	2r	.
4.B-y	Rat-	.	.	.	.
.	.	.	.	2r	.
8c	-to	.	.	.	.
4d	fui,	.	.	.	.
4c	non	.	.	4r	.
4BnX	so	.	.	[4g	Rat-
=5	=5	=5	=5	=5	=5
4c	co-	0r	.	8g]	.
.	.	.	.	8a	-to
4G	-me, in	.	.	4b-y	fui,
1d	chiu-	.	.	4.a	non
.	.	.	.	8g	so
.	.	.	.	4f	co-
.	.	.	.	4a	-me, in
2G	-sa	.	.	4.g	chiu-
.	.	.	.	8f	-sa
=6	=6	=6	=6	=6	=6
2A	chio-	2r	.	2e	chio-
2D	-stra,	4r	.	2d	-stra,
.	.	4b-y	E	.	.
1r	.	4a	due	1r	.
.	.	4.b-y	bel-	.	.
.	.	8a	-le	.	.
.	.	4g	d'A-	.	.
=7	=7	=7	=7	=7	=7
1r	.	4fy	-mor	0r	.
.	.	4fy	guer-	.	.
.	.	8fyL	-rie-	.	.
.	.	8e	.	.	.
.	.	8d	.	.	.
.	.	8cJ	.	.	.
2d	E	4B-y	.	.	.
.	.	4B-y	-re in	.	.
4f	due	2c	gio-	.	.
[4f	bel-	.	.	.	.
=8	=8	=8	=8	=8	=8
8f]	.	2d	-stra	4r	.
8e	-le	.	.	.	.
4d	d'A-	.	.	4a	E
2c	-mor	2r	.	4a	due
.	.	.	.	4.a	bel-
2d	guer-	1r	.	.	.
.	.	.	.	8g	-le
.	.	.	.	4g	d'A-
4e	-rie-	.	.	4a	-mor
4f	-re in	.	.	4d	guer-
=9	=9	=9	=9	=9	=9
8eL	gio-	1r	.	4c#X	-rie-
8AJ	.	.	.	.	.
2d	.	.	.	4d	-re in
.	.	.	.	2e	gio-
4c#i	.	.	.	.	.
4d	-stra	4r	.	4a	-stra
4.d	Vi-	4.f#X	Vi-	4.a	Vi-
8A	-di	8f#i	-di	8a	-di
4d	con	4f#i	con	4a	con
=10	=10	=10	=10	=10	=10
2d	l'ar-	2g	l'ar-	4g	l'ar-
.	.	.	.	4d	-m'on-
2cnXi	-m'on-	2g	-me	2e	-d'e-
1c	-d'e-	4r	.	1f	-gli è
.	.	4a	on-	.	.
.	.	4.a	-d'e-	.	.
.	.	8a	-gli è	.	.
=11	=11	=11	=11	=11	=11
2c	-gli è	2cc	sì	4g	sì
.	.	.	.	4g	pos-
4d	sì	2b-y	pos-	8GL	-sen-
.	.	.	.	8A	.
4G	pos-	.	.	8B-y	.
.	.	.	.	8cJ	.
1A	-sen-	1a	-sen-	1d	.
=12	=12	=12	=12	=12	=12
2G	-te;	2bX	-te;	2d	-te;
4r	.	4r	.	2r	.
4.g	Vi-	4.dd	Vi-	.	.
.	.	.	.	1r	.
8f#X	-di	8dd	-di	.	.
4g	che'n	4b-X	che'n	.	.
4d	dol-	4a	dol-	.	.
4g	-ce ar-	4g	-ce ar-	.	.
=13	=13	=13	=13	=13	=13
4.fnXi	-rin-	2.cc	-rin-	0r	.
16eL	.	.	.	.	.
16dJ	.	.	.	.	.
4c	.	.	.	.	.
4G	-go al-	4b-y	-go al-	.	.
4d	-te-	4a	-te-	.	.
4e-X	-ra-	4g	-ra-	.	.
2d	-men-	2a	-men-	.	.
=14	=14	=14	=14	=14	=14
2G	-te	2bX	-te	0r	.
4r	.	2r	.	.	.
4c	Fer	.	.	.	.
4.e-X	pria	4r	.	.	.
.	.	4g	Fer	.	.
8d	di	.	.	.	.
4c	lor	4.g	pria	.	.
4BnX	bel-	.	.	.	.
.	.	8g	di	.	.
=15	=15	=15	=15	=15	=15
4c	-tà	4g	lor	0r	.
4c	leg-	4g	bel-	.	.
2g	-gia-	4g	-tà	.	.
.	.	4dd	leg-	.	.
2e-X	-dra	4cc	-gia-	.	.
.	.	2b-y	-dra	.	.
2f	mo-	.	.	.	.
.	.	4a	mo-	.	.
=16	=16	=16	=16	=16	=16
2B-y	-stra,	2b-y	-stra,	2r	.
2r	.	2r	.	4r	.
.	.	.	.	4d	Poi
1r	.	1r	.	4d	mo-
.	.	.	.	4.f	-ven-
.	.	.	.	8f	-do-
.	.	.	.	4g	-si in-
=17	=17	=17	=17	=17	=17
0r	.	0r	.	2.f	-con-
.	.	.	.	4f	-tra o-
.	.	.	.	4.e-X	-ve
.	.	.	.	8d	s'i-
.	.	.	.	2c	-no-
=18	=18	=18	=18	=18	=18
4r	.	0r	.	4d	-stra
4d	La	.	.	4f	La
4.B-y	boc-	.	.	4.b-y	boc-
8f	-ca	.	.	8a	-ca
4f	si	.	.	4a	si
4g	fe-	.	.	4g	fe-
4d	-rir	.	.	4f#X	-rir
4f	di	.	.	4a	di
=19	=19	=19	=19	=19	=19
4c	ba-	0r	.	4.g	ba-
4G	-cio ar-	.	.	.	.
.	.	.	.	8fnXi	-cio ar-
1.A	-den-	.	.	4e	.
.	.	.	.	4a	.
.	.	.	.	1a	-den-
=20	=20	=20	=20	=20	=20
2d	-te,	1r	.	4f#X	-te,
.	.	.	.	4b-y	La
2r	.	.	.	4.a	boc-
.	.	.	.	8g	-ca
1r	.	4r	.	4g	si
.	.	4a	La	4fnXi	fe-
.	.	4.a	boc-	2e	-rir
.	.	8g	-ca	.	.
=21	=21	=21	=21	=21	=21
2r	.	4g	si	4d	di
.	.	4fy	fe-	2d	ba-
4r	.	4e	-rir	.	.
4e	di	4a	di	4c	-cio ar-
4c	ba-	4.a	ba-	1A	-den-
4d	-cio ar-	.	.	.	.
.	.	8a	-cio ar-	.	.
2e	-den-	2a	-den-	.	.
=22	=22	=22	=22	=22	=22
0dl	-te.	0al	-te.	0Al	-te.
=23||	=23||	=23||	=23||	=23||	=23||
!!LO:TX:a:t=Seconda parte.
4r	.	1r	.	4r	.
4d	So-	.	.	4a	So-
4d	-nar	.	.	4a	-nar
4BnX	le	.	.	4g	le
2c	la-	2r	.	2g	la-
2d	-bra	4r	.	2f#X	-bra
.	.	4a	So-	.	.
=24	=24	=24	=24	=24	=24
1r	.	4a	-nar	1r	.
.	.	4g	le	.	.
.	.	2g	la-	.	.
2r	.	2f#X	-bra	2r	.
4r	.	2r	.	4r	.
4d	e	.	.	4fnXi	e
=25	=25	=25	=25	=25	=25
4.d	vi	1r	.	4.f	vi
8e	re-	.	.	8g	re-
4f	-sta-	.	.	4a	-sta-
4d	-ro i	.	.	4f	-ro i
2A	se-	2r	.	2e	se-
2d	-gni,	4r	.	2d	-gni
.	.	4fi	e	.	.
=26	=26	=26	=26	=26	=26
4r	.	4.g	vi	1r	.
4B-y	<e	.	.	.	.
.	.	8a	re-	.	.
4.B-y	vi	4b-y	-sta-	.	.
.	.	4g	-ro i	.	.
8c	re-	.	.	.	.
4d	-sta-	8f#XiL	se-	2r	.
.	.	8dJ	.	.	.
4B-y	-ro i	2g	.	.	.
2A	se-	.	.	4r	.
.	.	4f#i	.	4a	Di
=27	=27	=27	=27	=27	=27
4G	-gni>	2g	-gni	2b-y	col-
4d	Di	.	.	.	.
2e-X	col-	2r	.	2g	-pi im-
2d	-pi im-	1r	.	1f	-pres-
2c	-pres-	.	.	.	.
=28	=28	=28	=28	=28	=28
4B-y	-si.	4r	.	4f	-si.
4d	A-	4fy	A-	4B-y	A-
2e-X	-mor,	2g	-mor,	2b-y	-mor,
4r	.	4.fy	deh,	4r	.
4.d	deh,	.	.	4.b-y	deh,
.	.	8fy	per-	.	.
.	.	2fy	-ch'a	.	.
8c	per-	.	.	8a	per-
4c	-ch'a	.	.	4a	-ch'a
=29	=29	=29	=29	=29	=29
2B-y	vo-	2d	vo-	2g	vo-
4A	-to,	2d	-to	4f#X	-to,
4.B-y	<deh,	.	.	4.b-y	deh,
.	.	1r	.	.	.
8F	per-	.	.	8a	per-
4F	-ch'a	.	.	4a	-ch'a
2G	vo-	.	.	2g	vo-
=30	=30	=30	=30	=30	=30
4d	-to>	0r	.	4f#X	-to
4d	Tan-	.	.	4a	Tan-
4.c	-t'ar-	.	.	4.cc	-t'ar-
8A	-me e	.	.	8cc	-me e
4B-y	tai	.	.	4b-y	tai
4c	per-	.	.	4g	per-
4F	-cos-	.	.	4a	-cos-
4B-y	-se u-	.	.	4b-y	-se u-
=31	=31	=31	=31	=31	=31
4c	-sar	1r	.	4g	-sar
4c	da	.	.	4g	da
2d	scher-	.	.	2f#X	scher-
4G	-zo,	4r	.	2g	-zo?
4d	<Tan-	4g	Tan-	.	.
4.e	-t'ar-	4.a	-t'ar-	2r	.
8f	-me e	8a	-me e	.	.
=32	=32	=32	=32	=32	=32
4d	tai	4g	tai	0r	.
4c	per-	4e	per-	.	.
4A	-cos-	4a	-cos-	.	.
4a	-se u-	4fy	-se u-	.	.
4.g	-sar	4e	-sar	.	.
.	.	2d	da	.	.
8f	da	.	.	.	.
2e	scher-	.	.	.	.
.	.	4c#X	scher-	.	.
=33	=33	=33	=33	=33	=33
2d	-zo?>	2d	-zo?	2r	.
2r	.	2r	.	4g	Pro-
.	.	.	.	8g	-vin-
.	.	.	.	8a	-si in
1r	.	1r	.	4g	ve-
.	.	.	.	4g	-ra
.	.	.	.	4.c	pu-
.	.	.	.	8d	-gna, e
=34	=34	=34	=34	=34	=34
0r	.	0r	.	4f	non
.	.	.	.	4g	si
.	.	.	.	2d	sde-
.	.	.	.	2d	-gni
.	.	.	.	4r	.
.	.	.	.	[4g	Scon-
=35	=35	=35	=35	=35	=35
1r	.	1r	.	8g]	.
.	.	.	.	8g	-tro
.	.	.	.	4e-X	d'a-
.	.	.	.	2f	-man-
4r	.	2r	.	2B-y	-te.
4d	A-	.	.	.	.
2d	-mor,	4r	.	2r	.
.	.	4fy	A-	.	.
=36	=36	=36	=36	=36	=36
4r	.	2fy	-mor,	0r	.
4A	me,	.	.	.	.
2.B-y	tuo	2r	.	.	.
.	.	4r	.	.	.
4A	de-	4a	me,	.	.
2G	-vo-	4b-y	tuo	.	.
.	.	[4g	de-	.	.
=37	=37	=37	=37	=37	=37
2d	-to,	4g]	.	4r	.
.	.	4f#X	-vo-	4a	A-
2r	.	4g	-to,	2b-y	-mor,
.	.	4G	A-	.	.
1r	.	2.d	-mor,	4f	me,
.	.	.	.	2g	tuo
.	.	4d	me,	4f	de-
=38	=38	=38	=38	=38	=38
1r	.	4c	tuo	2e-X	-vo-
.	.	2g	de-	.	.
.	.	.	.	2d	-to,
.	.	4f#X	-vo-	.	.
4r	.	2g	-to	1r	.
4g	Op-	.	.	.	.
4f	-po-	2r	.	.	.
4d	-ni a	.	.	.	.
=39	=39	=39	=39	=39	=39
2e-X	l'u-	1r	.	4r	.
.	.	.	.	4g	Op-
4d	-na,	.	.	4b-y	-po-
4f	<Op-	.	.	4a	-ni a
4e-i	-po-	2r	.	4.cc	l'u-
4c	-ni a	.	.	.	.
.	.	.	.	8b-y	.
4d	l'u-	4r	.	4a	.
4d	-na,>	4dd	o	4b-y	-na, o
=40	=40	=40	=40	=40	=40
2r	.	4.cc	fra	4.g	fra
.	.	8cc	le	8g	le
4r	.	4a	due	4f#X	due
4G	o	4b-y	fa	4g	fa
4.c	fra	2.a	ter-	2e	ter-
8c	le	.	.	.	.
2d	due	.	.	2d	-zo,
.	.	8b-yL	.	.	.
.	.	8ccJ	.	.	.
=41	=41	=41	=41	=41	=41
2G	fa	1dd	.	0r	.
2d	ter-	.	.	.	.
4G	-zo,	2bX	-zo,	.	.
4g	Op-	.	.	.	.
4f	-po-	2r	.	.	.
4d	-ni a	.	.	.	.
=42	=42	=42	=42	=42	=42
2e-X	l'u-	4r	.	1r	.
.	.	4g	Op-	.	.
4d	-na,	4b-i	-po-	.	.
4f	<Op-	4a	-ni a	.	.
4e-i	-po-	4.cc	l'u-	2r	.
4c	-ni a	.	.	.	.
.	.	8b-y	.	.	.
4d	l'u-	4a	.	4r	.
4d	-na,>	4b-y	-na, o	4dd	o
=43	=43	=43	=43	=43	=43
2r	.	4.g	fra	4.cc	fra
.	.	8g	le	8cc	le
4r	.	4f#X	due	4a	due
4G	o	4g	fa	4b-y	fa
4.c	fra	2e	ter-	2a	ter-
8c	le	.	.	.	.
2d	due	4d	-zo,	2a	-zo,
.	.	4A	fa	.	.
=44	=44	=44	=44	=44	=44
2G	fa	4.BX	ter-	4r	.
.	.	.	.	4d	fa
.	.	8c	.	.	.
2A	ter-	2d	.	2a	ter-
1Gl	-zo.	1dl	-zo.	1bnXl	-zo.
==	==	==	==	==	==
*-	*-	*-	*-	*-	*-
!!!system-decoration: [*]
!!!RDF**kern: i = editorial accidental
!!!RDF**kern: l = terminal long
!!!ENC: Emiliano Ricciardi
!!!END: 2018
!!!EED: Ricciardi, Emiliano
!!!EEV: 2018/10/28
!!!YEC: Copyright 2018 Emiliano Ricciardi, All Rights Reserved
!!!ONB: Translated from MusicXML on 2018/10/28 and edited by Craig Stuart Sapp
!!@@BEGIN:	VERSEDATA
!!@SOLERTI:	183
!!@CATALOGNUM:	Trm0183
!!@LAST_MODIFIED: 2020/07/12
!!@TITLE:		Di nettare amoroso ebro la mente
!!@GENRE:		sonetto
!!@MANUSRC:	A<sub>1</sub>, A<sub>3</sub>, Amz, Brn, C, F<sub>1</sub>, Flc<sub>2</sub>, I<sub>4</sub>, I<sub>5</sub>, P<sub>4</sub>, Pt, R<sub>7</sub>, Ts<sub>1</sub>, V<sub>8</sub>, V<sub>13/TS1</sub>, VE<sub>1</sub>, W
!!@PRINTSRC:	8, 9, 11, 12, 13, 15, 20, 24, 29, 33, 67, 141, 166, 169
!!@@BEGIN:	VERSES
!!@ABOUTIT:	Descrive l'atto nel quale vide baciarsi due donne amate da lui.
!!@ABOUTEN:	He describes the act of seeing two women he loved kiss each other.
!!@EDITOR:	Solerti, Angelo
!!@EDITION_TITLE: Le Rime di Torquato Tasso
!!@EDITION_LOC:	Bologna
!!@EDITION_PUB:	Romagnoli-Dall’Acqua
!!@EDITION_DATE:  1898-1902
!!@EDITION_VOL:	2
!!@EDITION_PAGE:  273
!!@TRANSLATOR:	Maria Pastore Passaro; adapted by Emiliano Ricciardi and Amyrose McCue Gill
!!@TRANSLATION_TITLE: Rhymes of Love
!!@TRANSLATION_LOC: Mineola, NY
!!@TRANSLATION_PUB: Legas
!!@TRANSLATION_DATE: 2011
!!@TRANSLATION_PAGE: 146-49
!!@VERSE:
!!	Di nettare amoroso ebro la mente
!!	Rapto fui, né so come, in chiusa chiostra,
!!	E due belle d'Amor guerriere in giostra
!!	Vidi con l'arme ond'egli è si possente;
!!@VERSE:
!!	Vidi che in dolce arringo alteramente
!!	Fer pria di lor beltà leggiadra mostra,
!!	Poi movendosi incontra ove s'innnostra
!!	La bocca si fer&icirc;r di bacio ardente.
!!@VERSE:
!!	Suonàr le labra e vi restaro i segni
!!	De' colpi impressi. Amor, deh, perché a vòto
!!	Tant'arme e tai percosse usar da scherzo?
!!@VERSE:
!!	Provinsi in vera pugna, e non si sdegni
!!	Scontro d'amante. Amor, me, tuo devoto,
!!	Opponi a l'una, o fra le due fa terzo.
!!@TVERSE:
!!	[With] my mind drunk on love’s nectar,
!!	I was captured, and know not how, in a sealed cloister,
!!	And two of Love’s warrior beauties in a joust
!!	I saw, with the weapons whereby He is so mighty;
!!@TVERSE:
!!	I saw that in the sweet fight proudly
!!	They first made a graceful show of their beauty.
!!	Then, moving together to where they turn to ruby,
!!	They wounded their mouths with an ardent kiss.
!!@TVERSE:
!!	Their lips resounded, and on them remained the signs
!!	Of the blows [that] bruised [them]. Love, oh why
!!	[Are] such weapons and such strikes used emptily in jest?
!!@TVERSE:
!!	Let them prove themselves in a real fight and not disdain
!!	A lover’s skirmish. Love, [let] me, your devotee,
!!	Oppose one – or, between the two, make a third.
!!@@END:		VERSES
!!@OTHER_CRIT_ED:   Torquato Tasso, <i>Rime d’amore (secondo il codice
!!		Chigiano L VIII 302)</i>, eds. Franco Gavazzeni and
!!		Vercingetorige Martignone, vol. 4 of <i>Edizione
!!		Nazionale delle opere di Torquato Tasso</i>
!!		(Alessandria: Edizioni Dell’Orso, 2004), 106.
!!@ATTRIBUTION_ABOUT:	Secure
!!		<br>
!!		Among other sources (see Literary Sources), this poem appears in the autograph Chigiano
!!		L.VIII.302 (Biblioteca Vaticana, Rome), compiled
!!		around 1584&ndash;85.
!!@DATING:
!!@DEDICATEE:	Peperara, Laura ?
!!@COMMENTARY:
!!@@END:		VERSEDATA
!!@@BEGIN:	SETTING
!!@CATALOGNUM:	Trm0183d
!!@RIMETITLE:	Di nettare amoroso ebro la mente
!!@SOLERTI:	183
!!@COMPOSER:	Monte, Filippo di
!!@PRINCEPSTITLE:	Il sesto libro de madrigali a sei voci
!!@PRINCEPSLOC:	Venetia
!!@NORMLOC:	Venice
!!@NORMPUB:	Angelo Gardano
!!@NORMPUBSHORT:	Gardano
!!@PRINCEPSPUB:	Gardano
!!@PRINCEPSYEAR:	1591
!!@PRINCEPSRISM:	M 3384
!!@REPRINTS:	
!!@OVOICES:	6
!!@EXTANTVOICES:	3
!!@PARTBOOKS:	
!!@EXTPARTBOOKS:	
!!@OCLEFS:	C2,C2,C3
!!@OMENSURATION:	C
!!@OKEYSIG:	b-
!!@FINAL:	(D)G
!!@TIMPEDITOR:	Ricciardi, Emiliano
!!@NOTE:		
!!@@END:		SETTING
